build/img/galery.svg

<svg width="24" height="24" fill="none" xmlns="http://www.w3.org/2000/svg">
  <path d="M12 8.3999c-1.9851 0-3.59998 1.6149-3.59998 3.6s1.61488 3.6 3.59998 3.6c1.9852 0 3.6-1.6149 3.6-3.6s-1.6148-3.6-3.6-3.6z" fill="#fff"/>
  <path fill-rule="evenodd" clip-rule="evenodd" d="M2.40002 17.6106V6.3892c0-2.20324 1.78606-3.9893 3.9893-3.9893H17.6107c2.2033 0 3.9893 1.78606 3.9893 3.9893v11.2214c0 2.2032-1.786 3.9893-3.9893 3.9893H6.38932c-2.20324 0-3.9893-1.7861-3.9893-3.9893zm4.15993-7.64449C4.926 14.7018 9.29815 19.0739 14.0338 17.44c1.5962-.5506 2.8558-1.8101 3.4063-3.4062 1.6339-4.73577-2.7382-9.10792-7.47398-7.47398-1.5961.55055-2.85563 1.8102-3.40617 3.40629zM18 6.59993c.6628 0 1.2-.53725 1.2-1.2 0-.66274-.5372-1.2-1.2-1.2-.6627 0-1.2.53726-1.2 1.2 0 .66275.5373 1.2 1.2 1.2z" fill="#fff"/>
</svg>

<svg width="24" height="24" viewBox="0 0 24 24" fill="none" xmlns="http://www.w3.org/2000/svg">
<path d="M12 8.3999C10.0149 8.3999 8.40002 10.0148 8.40002 11.9999C8.40002 13.985 10.0149 15.5999 12 15.5999C13.9852 15.5999 15.6 13.985 15.6 11.9999C15.6 10.0148 13.9852 8.3999 12 8.3999Z" fill="white"/>
<path fill-rule="evenodd" clip-rule="evenodd" d="M2.40002 17.6106V6.3892C2.40002 4.18596 4.18608 2.3999 6.38932 2.3999H17.6107C19.814 2.3999 21.6 4.18596 21.6 6.3892V17.6106C21.6 19.8138 19.814 21.5999 17.6107 21.5999H6.38932C4.18608 21.5999 2.40002 19.8138 2.40002 17.6106ZM6.55995 9.96611C4.926 14.7018 9.29815 19.0739 14.0338 17.44C15.63 16.8894 16.8896 15.6299 17.4401 14.0338C19.074 9.29803 14.7019 4.92588 9.96612 6.55982C8.37002 7.11037 7.11049 8.37002 6.55995 9.96611ZM18 6.59993C18.6628 6.59993 19.2 6.06268 19.2 5.39993C19.2 4.73719 18.6628 4.19993 18 4.19993C17.3373 4.19993 16.8 4.73719 16.8 5.39993C16.8 6.06268 17.3373 6.59993 18 6.59993Z" fill="white"/>
</svg>
